;FLAVOR:Marlin
;TIME:979
;Filament used: 0.495261m
;Layer height: 0.2
;MINX:115.571
;MINY:114.7
;MINZ:0.3
;MAXX:147.8
;MAXY:145.3
;MAXZ:12.9
;Generated with Creality Slicer 4.8.2-254
M140 S100
M105
M190 S100
M104 S235
M105
M109 S235
M82 ;absolute extrusion mode

G28 ;Home

G92 E0 ;Reset Extruder
G1 Z2.0 F3000 ;Move Z Axis up
G1 X10.1 Y20 Z0.28 F5000.0 ;Move to start position
G1 X10.1 Y200.0 Z0.28 F1500.0 E15 ;Draw the first line
G1 X10.4 Y200.0 Z0.28 F5000.0 ;Move to side a little
G1 X10.4 Y20 Z0.28 F1500.0 E30 ;Draw the second line
G92 E0 ;Reset Extruder
G1 Z2.0 F3000 ;Move Z Axis up

G92 E0
G92 E0
G1 F3600 E-10
;LAYER_COUNT:64
;LAYER:0
M107
G0 F6000 X117.996 Y116.849 Z0.3
;TYPE:SKIRT
G1 F3600 E0
G1 F1200 X118.595 Y116.334 E0.03941
G1 X119.243 Y115.883 E0.0788
G1 X119.933 Y115.499 E0.1182
G1 X120.659 Y115.187 E0.15762
G1 X121.412 Y114.95 E0.197
G1 X122.185 Y114.791 E0.23638
G1 X122.971 Y114.71 E0.2758
G1 X123.372 Y114.7 E0.29581
G1 X140 Y114.7 E1.12538
G1 X140.789 Y114.74 E1.1648
G1 X141.569 Y114.859 E1.20416
G1 X142.334 Y115.057 E1.24359
G1 X143.074 Y115.331 E1.28295
G1 X143.783 Y115.679 E1.32236
G1 X144.454 Y116.097 E1.3618
G1 X145.078 Y116.58 E1.40117
G1 X145.651 Y117.123 E1.44055
G1 X146.166 Y117.722 E1.47996
G1 X146.617 Y118.37 E1.51935
G1 X147.001 Y119.061 E1.55879
G1 X147.313 Y119.786 E1.59817
G1 X147.55 Y120.539 E1.63755
G1 X147.709 Y121.313 E1.67697
G1 X147.79 Y122.098 E1.71634
G1 X147.8 Y122.5 E1.73641
G1 X147.8 Y137.5 E2.48476
G1 X147.76 Y138.289 E2.52417
G1 X147.641 Y139.069 E2.56354
G1 X147.443 Y139.834 E2.60296
G1 X147.169 Y140.574 E2.64233
G1 X146.821 Y141.283 E2.68173
G1 X146.403 Y141.954 E2.72117
G1 X145.92 Y142.578 E2.76054
G1 X145.377 Y143.151 E2.79992
G1 X144.778 Y143.666 E2.83934
G1 X144.13 Y144.117 E2.87872
G1 X143.439 Y144.501 E2.91816
G1 X142.714 Y144.813 E2.95754
G1 X141.961 Y145.05 E2.99692
G1 X141.187 Y145.209 E3.03635
G1 X140.402 Y145.29 E3.07572
G1 X140 Y145.3 E3.09578
G1 X123.371 Y145.3 E3.9254
G1 X122.582 Y145.26 E3.96482
G1 X121.802 Y145.141 E4.00418
G1 X121.037 Y144.943 E4.04361
G1 X120.297 Y144.669 E4.08297
G1 X119.588 Y144.321 E4.12238
G1 X118.917 Y143.903 E4.16182
G1 X118.293 Y143.42 E4.20119
G1 X117.72 Y142.877 E4.24057
G1 X117.205 Y142.278 E4.27998
G1 X116.754 Y141.63 E4.31937
G1 X116.37 Y140.939 E4.35881
G1 X116.058 Y140.214 E4.39819
G1 X115.821 Y139.461 E4.43757
G1 X115.662 Y138.687 E4.47699
G1 X115.581 Y137.902 E4.51636
G1 X115.571 Y137.499 E4.53648
G1 X115.572 Y122.499 E5.28483
G1 X115.612 Y121.711 E5.32419
G1 X115.732 Y120.93 E5.36361
G1 X115.929 Y120.166 E5.40298
G1 X116.204 Y119.425 E5.44241
G1 X116.551 Y118.716 E5.48179
G1 X116.969 Y118.046 E5.52119
G1 X117.452 Y117.421 E5.5606
G1 X117.63 Y117.234 E5.57348
G0 F1080 X117.996 Y116.849
G0 F6000 X118.389 Y117.03
G1 F1200 X118.983 Y116.542 E5.61183
G1 X119.626 Y116.118 E5.65026
G1 X120.308 Y115.764 E5.68859
G1 X121.024 Y115.482 E5.72698
G1 X121.765 Y115.277 E5.76534
G1 X122.523 Y115.149 E5.80369
G1 X123.372 Y115.1 E5.84612
G1 X140 Y115.1 E6.6757
G1 X140.768 Y115.14 E6.71406
G1 X141.528 Y115.259 E6.75244
G1 X142.271 Y115.457 E6.7908
G1 X142.99 Y115.731 E6.82919
G1 X143.676 Y116.078 E6.86755
G1 X144.323 Y116.494 E6.90592
G1 X144.923 Y116.975 E6.94429
G1 X145.47 Y117.516 E6.98267
G1 X145.958 Y118.111 E7.02106
G1 X146.381 Y118.753 E7.05942
G1 X146.736 Y119.436 E7.09782
G1 X147.017 Y120.151 E7.13615
G1 X147.223 Y120.893 E7.17457
G1 X147.351 Y121.651 E7.21292
G1 X147.4 Y122.5 E7.25535
G1 X147.4 Y137.5 E8.0037
G1 X147.36 Y138.268 E8.04207
G1 X147.241 Y139.028 E8.08045
G1 X147.043 Y139.771 E8.11881
G1 X146.769 Y140.49 E8.15719
G1 X146.422 Y141.176 E8.19555
G1 X146.006 Y141.823 E8.23392
G1 X145.525 Y142.423 E8.27229
G1 X144.984 Y142.97 E8.31067
G1 X144.389 Y143.458 E8.34906
G1 X143.747 Y143.881 E8.38742
G1 X143.064 Y144.236 E8.42582
G1 X142.349 Y144.517 E8.46415
G1 X141.607 Y144.723 E8.50257
G1 X140.849 Y144.851 E8.54092
G1 X140 Y144.9 E8.58335
G1 X123.371 Y144.9 E9.41297
G1 X122.603 Y144.86 E9.45134
G1 X121.843 Y144.741 E9.48972
G1 X121.1 Y144.543 E9.52808
G1 X120.381 Y144.269 E9.56647
G1 X119.695 Y143.922 E9.60482
G1 X119.048 Y143.506 E9.6432
G1 X118.448 Y143.025 E9.68156
G1 X117.901 Y142.484 E9.71995
G1 X117.413 Y141.889 E9.75834
G1 X116.99 Y141.247 E9.7967
G1 X116.635 Y140.564 E9.8351
G1 X116.354 Y139.849 E9.87343
G1 X116.148 Y139.107 E9.91184
G1 X116.02 Y138.349 E9.9502
G1 X115.971 Y137.5 E9.99262
G1 X115.972 Y122.5 E10.74098
G1 X116.012 Y121.731 E10.77939
G1 X116.132 Y120.972 E10.81773
G1 X116.329 Y120.228 E10.85613
G1 X116.603 Y119.51 E10.89447
G1 X116.95 Y118.823 E10.93287
G1 X117.366 Y118.176 E10.97124
G1 X117.848 Y117.576 E11.00964
G1 X118.015 Y117.408 E11.02146
G0 F1080 X118.389 Y117.03
G0 F6000 X118.781 Y117.216
G1 F1200 X119.371 Y116.756 E11.05878
G1 X120.006 Y116.362 E11.09607
G1 X120.681 Y116.038 E11.13342
G1 X121.386 Y115.788 E11.17074
G1 X122.113 Y115.614 E11.20803
G1 X122.855 Y115.519 E11.24535
G1 X123.372 Y115.5 E11.27117
G1 X140 Y115.5 E12.10074
G1 X140.747 Y115.54 E12.13806
G1 X141.485 Y115.659 E12.17536
G1 X142.207 Y115.857 E12.21271
G1 X142.903 Y116.13 E12.25001
G1 X143.566 Y116.477 E12.28734
G1 X144.189 Y116.892 E12.32469
G1 X144.763 Y117.371 E12.36198
G1 X145.284 Y117.908 E12.39931
G1 X145.743 Y118.498 E12.43661
G1 X146.138 Y119.134 E12.47396
G1 X146.462 Y119.808 E12.51127
G1 X146.712 Y120.513 E12.54859
G1 X146.886 Y121.241 E12.58593
G1 X146.981 Y121.983 E12.62325
G1 X147 Y122.5 E12.64906
G1 X147 Y137.5 E13.39741
G1 X146.96 Y138.247 E13.43473
G1 X146.841 Y138.985 E13.47203
G1 X146.643 Y139.707 E13.50938
G1 X146.37 Y140.403 E13.54668
G1 X146.023 Y141.066 E13.58401
G1 X145.608 Y141.689 E13.62136
G1 X145.129 Y142.263 E13.65866
G1 X144.592 Y142.784 E13.69598
G1 X144.002 Y143.243 E13.73328
G1 X143.366 Y143.638 E13.77063
G1 X142.692 Y143.962 E13.80794
G1 X141.987 Y144.212 E13.84526
G1 X141.259 Y144.386 E13.8826
G1 X140.517 Y144.481 E13.91992
G1 X140 Y144.5 E13.94573
G1 X123.371 Y144.5 E14.77536
G1 X122.624 Y144.46 E14.81268
G1 X121.886 Y144.341 E14.84997
G1 X121.164 Y144.143 E14.88732
G1 X120.468 Y143.87 E14.92462
G1 X119.805 Y143.523 E14.96196
G1 X119.182 Y143.108 E14.9993
G1 X118.608 Y142.629 E15.0366
G1 X118.087 Y142.092 E15.07393
G1 X117.628 Y141.502 E15.11122
G1 X117.233 Y140.866 E15.14857
G1 X116.909 Y140.192 E15.18588
G1 X116.659 Y139.487 E15.2232
G1 X116.485 Y138.759 E15.26055
G1 X116.39 Y138.017 E15.29787
G1 X116.371 Y137.5 E15.32368
G1 X116.372 Y122.5 E16.07203
G1 X116.412 Y121.753 E16.10935
G1 X116.532 Y121.014 E16.1467
G1 X116.729 Y120.293 E16.18399
G1 X117.003 Y119.596 E16.22136
G1 X117.349 Y118.933 E16.25867
G1 X117.764 Y118.311 E16.29597
G1 X118.243 Y117.736 E16.33331
G1 X118.399 Y117.585 E16.34414
G0 F1080 X118.781 Y117.216
G0 F6000 X118.638 Y117.902
G1 F1200 X119.172 Y117.409 E16.3804
G1 X119.756 Y116.978 E16.41661
G1 X120.385 Y116.615 E16.45284
G1 X121.05 Y116.322 E16.4891
G1 X121.743 Y116.104 E16.52534
G1 X122.456 Y115.964 E16.56159
G1 X123.372 Y115.9 E16.6074
G1 X140 Y115.9 E17.43698
G1 X140.725 Y115.94 E17.4732
G1 X141.442 Y116.059 E17.50946
G1 X142.141 Y116.257 E17.54571
G1 X142.814 Y116.53 E17.58194
G1 X143.453 Y116.875 E17.61817
G1 X144.05 Y117.289 E17.65442
G1 X144.598 Y117.765 E17.69063
G1 X145.091 Y118.299 E17.72689
G1 X145.521 Y118.884 E17.76311
G1 X145.885 Y119.513 E17.79937
G1 X146.178 Y120.178 E17.83562
G1 X146.396 Y120.871 E17.87187
G1 X146.536 Y121.583 E17.90807
G1 X146.6 Y122.5 E17.95393
G1 X146.6 Y137.5 E18.70228
G1 X146.56 Y138.225 E18.73851
G1 X146.441 Y138.942 E18.77477
G1 X146.243 Y139.641 E18.81101
G1 X145.97 Y140.314 E18.84725
G1 X145.625 Y140.953 E18.88348
G1 X145.211 Y141.55 E18.91972
G1 X144.735 Y142.098 E18.95594
G1 X144.201 Y142.591 E18.99219
G1 X143.616 Y143.021 E19.02842
G1 X142.987 Y143.385 E19.06467
G1 X142.322 Y143.678 E19.10093
G1 X141.629 Y143.896 E19.13717
G1 X140.917 Y144.036 E19.17337
G1 X140 Y144.1 E19.21923
G1 X123.371 Y144.1 E20.04886
G1 X122.646 Y144.06 E20.08508
G1 X121.929 Y143.941 E20.12135
G1 X121.23 Y143.743 E20.15759
G1 X120.557 Y143.47 E20.19382
G1 X119.918 Y143.125 E20.23005
G1 X119.321 Y142.711 E20.2663
G1 X118.773 Y142.235 E20.30251
G1 X118.28 Y141.701 E20.33877
G1 X117.85 Y141.116 E20.37499
G1 X117.486 Y140.487 E20.41125
G1 X117.193 Y139.822 E20.4475
G1 X116.975 Y139.129 E20.48375
G1 X116.835 Y138.417 E20.51995
G1 X116.771 Y137.5 E20.56581
G1 X116.772 Y122.5 E21.31416
G1 X116.812 Y121.774 E21.35044
G1 X116.931 Y121.058 E21.38665
G1 X117.129 Y120.359 E21.4229
G1 X117.402 Y119.686 E21.45913
G1 X117.747 Y119.047 E21.49536
G1 X118.161 Y118.45 E21.5316
G1 X118.289 Y118.303 E21.54133
G0 F1080 X118.638 Y117.902
G0 F6000 X119.032 Y118.073
G1 F1200 X119.562 Y117.609 E21.57647
G1 X120.141 Y117.209 E21.61158
G1 X120.761 Y116.877 E21.64667
G1 X121.416 Y116.617 E21.68183
G1 X122.095 Y116.433 E21.71692
G1 X122.791 Y116.327 E21.75205
G1 X123.372 Y116.3 E21.78107
G1 X140 Y116.3 E22.61064
G1 X140.703 Y116.34 E22.64577
G1 X141.397 Y116.459 E22.6809
G1 X142.072 Y116.657 E22.71599
G1 X142.721 Y116.929 E22.7511
G1 X143.335 Y117.274 E22.78624
G1 X143.906 Y117.685 E22.82134
G1 X144.427 Y118.159 E22.85648
G1 X144.891 Y118.689 E22.89162
G1 X145.291 Y119.268 E22.92673
G1 X145.623 Y119.889 E22.96186
G1 X145.883 Y120.543 E22.99697
G1 X146.067 Y121.223 E23.03212
G1 X146.173 Y121.919 E23.06724
G1 X146.2 Y122.5 E23.09626
G1 X146.2 Y137.5 E23.84461
G1 X146.16 Y138.203 E23.87974
G1 X146.041 Y138.897 E23.91487
G1 X145.843 Y139.572 E23.94997
G1 X145.571 Y140.221 E23.98508
G1 X145.226 Y140.835 E24.02021
G1 X144.815 Y141.406 E24.05531
G1 X144.341 Y141.927 E24.09045
G1 X143.811 Y142.391 E24.1256
G1 X143.232 Y142.791 E24.16071
G1 X142.611 Y143.123 E24.19584
G1 X141.957 Y143.383 E24.23095
G1 X141.277 Y143.567 E24.26609
G1 X140.581 Y143.673 E24.30122
G1 X140 Y143.7 E24.33024
G1 X123.371 Y143.7 E25.15986
G1 X122.668 Y143.66 E25.19499
G1 X121.974 Y143.541 E25.23012
G1 X121.299 Y143.343 E25.26521
G1 X120.65 Y143.071 E25.30032
G1 X120.036 Y142.726 E25.33546
G1 X119.465 Y142.315 E25.37056
G1 X118.944 Y141.841 E25.4057
G1 X118.48 Y141.311 E25.44084
G1 X118.08 Y140.732 E25.47595
G1 X117.748 Y140.111 E25.51108
G1 X117.488 Y139.457 E25.54619
G1 X117.304 Y138.777 E25.58134
G1 X117.198 Y138.081 E25.61646
G1 X117.171 Y137.5 E25.64548
G1 X117.172 Y122.5 E26.39383
G1 X117.212 Y121.797 E26.42896
G1 X117.331 Y121.103 E26.46409
G1 X117.529 Y120.427 E26.49924
G1 X117.801 Y119.778 E26.53434
G1 X118.146 Y119.164 E26.56948
G1 X118.558 Y118.593 E26.60461
G1 X118.674 Y118.466 E26.61319
G0 F1080 X119.032 Y118.073
G0 F6000 X119.425 Y118.25
G1 F1200 X119.95 Y117.817 E26.64714
G1 X120.522 Y117.448 E26.6811
G1 X121.134 Y117.149 E26.71508
G1 X121.777 Y116.924 E26.74907
G1 X122.441 Y116.775 E26.78302
G1 X123.372 Y116.7 E26.82962
G1 X140 Y116.7 E27.65919
G1 X140.68 Y116.74 E27.69318
G1 X141.35 Y116.859 E27.72713
G1 X142.002 Y117.056 E27.76111
G1 X142.626 Y117.328 E27.79507
G1 X143.214 Y117.672 E27.82906
G1 X143.758 Y118.082 E27.86304
G1 X144.249 Y118.553 E27.89698
G1 X144.683 Y119.078 E27.93097
G1 X145.052 Y119.65 E27.96493
G1 X145.351 Y120.262 E27.99891
G1 X145.576 Y120.904 E28.03285
G1 X145.725 Y121.569 E28.06685
G1 X145.8 Y122.5 E28.11345
G1 X145.8 Y137.5 E28.8618
G1 X145.76 Y138.18 E28.89578
G1 X145.641 Y138.85 E28.92973
G1 X145.444 Y139.502 E28.96372
G1 X145.172 Y140.126 E28.99768
G1 X144.828 Y140.714 E29.03166
G1 X144.418 Y141.258 E29.06565
G1 X143.947 Y141.749 E29.09959
G1 X143.422 Y142.183 E29.13358
G1 X142.85 Y142.552 E29.16754
G1 X142.238 Y142.851 E29.20152
G1 X141.596 Y143.076 E29.23546
G1 X140.931 Y143.225 E29.26946
G1 X140 Y143.3 E29.31605
G1 X123.371 Y143.3 E30.14568
G1 X122.691 Y143.26 E30.17966
G1 X122.021 Y143.141 E30.21361
G1 X121.369 Y142.944 E30.24759
G1 X120.745 Y142.672 E30.28155
G1 X120.157 Y142.328 E30.31554
G1 X119.613 Y141.918 E30.34953
G1 X119.122 Y141.447 E30.38347
G1 X118.688 Y140.922 E30.41745
G1 X118.319 Y140.35 E30.45141
G1 X118.02 Y139.738 E30.4854
G1 X117.795 Y139.096 E30.51934
G1 X117.646 Y138.431 E30.55334
G1 X117.571 Y137.5 E30.59993
G1 X117.572 Y122.5 E31.34829
G1 X117.612 Y121.82 E31.38227
G1 X117.731 Y121.15 E31.41622
G1 X117.929 Y120.498 E31.45022
G1 X118.201 Y119.874 E31.48418
G1 X118.544 Y119.286 E31.51814
G1 X118.954 Y118.742 E31.55212
G1 X119.058 Y118.634 E31.5596
G0 F1080 X119.425 Y118.25
G0 F6000 X119.817 Y118.435
G1 F1200 X120.337 Y118.034 E31.59236
G1 X120.902 Y117.698 E31.62516
G1 X121.503 Y117.434 E31.65791
G1 X122.132 Y117.244 E31.69069
G1 X122.78 Y117.133 E31.72349
G1 X123.372 Y117.1 E31.75307
G1 X140 Y117.1 E32.58265
G1 X140.656 Y117.14 E32.61543
G1 X141.302 Y117.259 E32.64821
G1 X141.929 Y117.456 E32.68099
G1 X142.527 Y117.728 E32.71377
G1 X143.088 Y118.07 E32.74655
G1 X143.603 Y118.478 E32.77933
G1 X144.065 Y118.945 E32.8121
G1 X144.466 Y119.465 E32.84486
G1 X144.802 Y120.029 E32.87762
G1 X145.066 Y120.631 E32.91041
G1 X145.256 Y121.26 E32.94319
G1 X145.367 Y121.907 E32.97594
G1 X145.4 Y122.5 E33.00557
G1 X145.4 Y137.5 E33.75393
G1 X145.36 Y138.156 E33.78671
G1 X145.241 Y138.802 E33.81949
G1 X145.044 Y139.429 E33.85227
G1 X144.772 Y140.027 E33.88505
G1 X144.43 Y140.588 E33.91783
G1 X144.022 Y141.103 E33.95061
G1 X143.555 Y141.565 E33.98338
G1 X143.035 Y141.966 E34.01614
G1 X142.471 Y142.302 E34.0489
G1 X141.869 Y142.566 E34.08169
G1 X141.24 Y142.756 E34.11447
G1 X140.593 Y142.867 E34.14722
G1 X140 Y142.9 E34.17685
G1 X123.371 Y142.9 E35.00648
G1 X122.715 Y142.86 E35.03927
G1 X122.069 Y142.741 E35.07204
G1 X121.442 Y142.544 E35.10483
G1 X120.844 Y142.272 E35.1376
G1 X120.283 Y141.93 E35.17038
G1 X119.768 Y141.522 E35.20316
G1 X119.306 Y141.055 E35.23593
G1 X118.905 Y140.535 E35.2687
G1 X118.569 Y139.971 E35.30145
G1 X118.305 Y139.369 E35.33424
G1 X118.115 Y138.74 E35.36702
G1 X118.004 Y138.093 E35.39978
G1 X117.971 Y137.5 E35.42941
G1 X117.972 Y122.5 E36.17776
G1 X118.012 Y121.844 E36.21055
G1 X118.131 Y121.198 E36.24332
G1 X118.328 Y120.571 E36.27611
G1 X118.6 Y119.973 E36.30888
G1 X118.942 Y119.412 E36.34166
G1 X119.35 Y118.897 E36.37444
G1 X119.439 Y118.809 E36.38069
G0 F1080 X119.817 Y118.435
G0 F6000 X119.745 Y119.059
G1 F1200 X120.208 Y118.628 E36.41224
G1 X120.722 Y118.26 E36.44378
G1 X121.278 Y117.96 E36.4753
G1 X121.868 Y117.732 E36.50686
G1 X122.481 Y117.58 E36.53837
G1 X123.372 Y117.5 E36.583
G1 X140 Y117.5 E37.41257
G1 X140.631 Y117.54 E37.44412
G1 X141.252 Y117.659 E37.47566
G1 X141.852 Y117.856 E37.50717
G1 X142.424 Y118.127 E37.53875
G1 X142.956 Y118.467 E37.57025
G1 X143.441 Y118.873 E37.6018
G1 X143.871 Y119.336 E37.63333
G1 X144.24 Y119.85 E37.66489
G1 X144.54 Y120.406 E37.69641
G1 X144.768 Y120.995 E37.72792
G1 X144.92 Y121.609 E37.75948
G1 X145 Y122.5 E37.80411
G1 X145 Y137.5 E38.55246
G1 X144.96 Y138.131 E38.58401
G1 X144.841 Y138.752 E38.61555
G1 X144.644 Y139.352 E38.64706
G1 X144.373 Y139.924 E38.67864
G1 X144.033 Y140.456 E38.71014
G1 X143.627 Y140.941 E38.74169
G1 X143.164 Y141.371 E38.77322
G1 X142.65 Y141.74 E38.80478
G1 X142.094 Y142.04 E38.8363
G1 X141.505 Y142.268 E38.86781
G1 X140.891 Y142.42 E38.89937
G1 X140 Y142.5 E38.944
G1 X123.371 Y142.5 E39.77363
G1 X122.74 Y142.46 E39.80517
G1 X122.119 Y142.341 E39.83672
G1 X121.519 Y142.144 E39.86822
G1 X120.947 Y141.873 E39.8998
G1 X120.415 Y141.533 E39.9313
G1 X119.93 Y141.127 E39.96285
G1 X119.5 Y140.664 E39.99438
G1 X119.131 Y140.15 E40.02595
G1 X118.831 Y139.594 E40.05747
G1 X118.603 Y139.005 E40.08898
G1 X118.451 Y138.391 E40.12053
G1 X118.371 Y137.5 E40.16516
G1 X118.372 Y122.5 E40.91352
G1 X118.412 Y121.869 E40.94506
G1 X118.531 Y121.248 E40.97661
G1 X118.728 Y120.647 E41.00816
G1 X118.999 Y120.076 E41.03969
