;FLAVOR:Marlin
;TIME:15421
;Filament used: 23.5171m
;Layer height: 0.35
;MINX:87
;MINY:46
;MINZ:0.28
;MAXX:173
;MAXY:214
;MAXZ:39.83
;Generated with Creality Slicer 4.8.2-254
M140 S110
M105
M190 S110
M104 S235
M105
M109 S235
M82 ;absolute extrusion mode

G28 ;Home

G92 E0 ;Reset Extruder
G1 Z2.0 F3000 ;Move Z Axis up
G1 X10.1 Y20 Z0.28 F5000.0 ;Move to start position
G1 X10.1 Y200.0 Z0.28 F1500.0 E15 ;Draw the first line
G1 X10.4 Y200.0 Z0.28 F5000.0 ;Move to side a little
G1 X10.4 Y20 Z0.28 F1500.0 E30 ;Draw the second line
G92 E0 ;Reset Extruder
G1 Z2.0 F3000 ;Move Z Axis up

G92 E0
G92 E0
G1 F3600 E-10
;LAYER_COUNT:114
;LAYER:0
M107
G0 F6000 X88.492 Y51.493 Z0.28
;TYPE:SKIRT
G1 F3600 E0
G1 F1200 X88.996 Y50.703 E0.04363
G1 X89.566 Y49.958 E0.08731
G1 X90.198 Y49.264 E0.13102
G1 X90.886 Y48.627 E0.17468
G1 X91.626 Y48.051 E0.21835
G1 X92.412 Y47.539 E0.26203
G1 X93.239 Y47.097 E0.30569
G1 X94.101 Y46.727 E0.34937
G1 X94.991 Y46.431 E0.39304
G1 X95.903 Y46.213 E0.43671
G1 X96.83 Y46.072 E0.48037
G1 X97.701 Y46.013 E0.52102
G1 X98.022 Y46.004 E0.53597
G1 X98.33 Y46 E0.55031
G1 X161.293 Y46 E3.48213
G1 X162.149 Y46.011 E3.522
G1 X163.085 Y46.065 E3.56565
G1 X164.013 Y46.197 E3.6093
G1 X164.927 Y46.409 E3.65299
G1 X165.819 Y46.698 E3.69665
G1 X166.684 Y47.061 E3.74033
G1 X167.514 Y47.497 E3.78399
G1 X168.305 Y48.002 E3.82769
G1 X169.049 Y48.573 E3.87136
G1 X169.742 Y49.205 E3.91503
G1 X170.379 Y49.893 E3.95869
G1 X170.954 Y50.634 E4.00236
G1 X171.465 Y51.42 E4.04602
G1 X171.907 Y52.248 E4.08972
G1 X172.276 Y53.11 E4.13338
G1 X172.571 Y54 E4.17704
G1 X172.789 Y54.912 E4.2207
G1 X172.929 Y55.84 E4.2644
G1 X172.987 Y56.701 E4.30459
G1 X172.996 Y57.021 E4.31949
G1 X173 Y57.33 E4.33388
G1 X172.999 Y202.4 E11.08895
G1 X172.99 Y203.127 E11.12281
G1 X172.939 Y204.064 E11.1665
G1 X172.807 Y204.992 E11.21015
G1 X172.598 Y205.906 E11.25381
G1 X172.311 Y206.799 E11.29748
G1 X171.949 Y207.665 E11.34119
G1 X171.515 Y208.496 E11.38484
G1 X171.011 Y209.287 E11.42852
G1 X170.442 Y210.032 E11.47217
G1 X169.811 Y210.727 E11.51588
G1 X169.124 Y211.365 E11.55953
G1 X168.385 Y211.942 E11.60319
G1 X167.599 Y212.454 E11.64687
G1 X166.773 Y212.897 E11.69051
G1 X165.911 Y213.269 E11.73423
G1 X165.022 Y213.565 E11.77786
G1 X164.11 Y213.785 E11.82155
G1 X163.183 Y213.926 E11.86521
G1 X162.299 Y213.987 E11.90647
G1 X161.978 Y213.996 E11.92142
G1 X161.67 Y214 E11.93576
G1 X98.565 Y213.999 E14.8742
G1 X97.867 Y213.99 E14.9067
G1 X96.931 Y213.938 E14.95035
G1 X96.002 Y213.806 E14.99405
G1 X95.088 Y213.596 E15.03771
G1 X94.195 Y213.309 E15.08139
G1 X93.33 Y212.946 E15.12507
G1 X92.499 Y212.512 E15.16873
G1 X91.708 Y212.008 E15.2124
G1 X90.963 Y211.438 E15.25608
G1 X90.269 Y210.807 E15.29975
G1 X89.632 Y210.12 E15.34338
G1 X89.055 Y209.38 E15.38707
G1 X88.543 Y208.594 E15.43075
G1 X88.1 Y207.767 E15.47444
G1 X87.729 Y206.906 E15.51809
G1 X87.433 Y206.016 E15.56177
G1 X87.214 Y205.104 E15.60544
G1 X87.073 Y204.177 E15.6491
G1 X87.013 Y203.288 E15.69059
G1 X87.004 Y202.955 E15.7061
G1 X87 Y202.658 E15.71994
G1 X87.001 Y57.525 E22.47794
G1 X87.01 Y56.86 E22.5089
G1 X87.063 Y55.924 E22.55256
G1 X87.195 Y54.995 E22.59625
G1 X87.406 Y54.081 E22.63993
G1 X87.694 Y53.189 E22.68358
G1 X88.057 Y52.324 E22.72726
G1 X88.228 Y51.998 E22.7444
G0 F1080 X88.492 Y51.493
G0 F6000 X88.889 Y51.606
G1 F1200 X89.392 Y50.835 E22.78726
G1 X89.961 Y50.111 E22.83014
G1 X90.589 Y49.439 E22.87297
G1 X91.274 Y48.823 E22.91587
G1 X92.01 Y48.27 E22.95873
G1 X92.791 Y47.782 E23.00162
G1 X93.611 Y47.364 E23.04447
G1 X94.465 Y47.019 E23.08736
G1 X95.345 Y46.749 E23.13022
G1 X96.245 Y46.557 E23.17307
G1 X97.159 Y46.443 E23.21596
G1 X97.712 Y46.413 E23.24175
G1 X98.033 Y46.404 E23.2567
G1 X98.33 Y46.4 E23.27054
G1 X161.293 Y46.4 E26.20236
G1 X162.143 Y46.411 E26.24194
G1 X163.062 Y46.464 E26.2848
G1 X163.973 Y46.597 E26.32767
G1 X164.869 Y46.808 E26.37054
G1 X165.743 Y47.096 E26.41338
G1 X166.59 Y47.459 E26.45629
G1 X167.401 Y47.894 E26.49915
G1 X168.171 Y48.398 E26.542
G1 X168.895 Y48.967 E26.58488
G1 X169.567 Y49.597 E26.62777
G1 X170.182 Y50.282 E26.67063
G1 X170.735 Y51.018 E26.7135
G1 X171.222 Y51.799 E26.75636
G1 X171.639 Y52.62 E26.79924
G1 X171.984 Y53.474 E26.84212
G1 X172.253 Y54.354 E26.88497
G1 X172.445 Y55.255 E26.92787
G1 X172.558 Y56.168 E26.97071
G1 X172.587 Y56.712 E26.99607
G1 X172.596 Y57.032 E27.01098
G1 X172.6 Y57.33 E27.02486
G1 X172.599 Y202.395 E33.77969
G1 X172.59 Y203.122 E33.81355
G1 X172.539 Y204.041 E33.8564
G1 X172.408 Y204.953 E33.89931
G1 X172.198 Y205.849 E33.94216
G1 X171.912 Y206.724 E33.98502
G1 X171.551 Y207.571 E34.0279
G1 X171.117 Y208.383 E34.07077
G1 X170.615 Y209.155 E34.11365
G1 X170.047 Y209.88 E34.15653
G1 X169.419 Y210.553 E34.1994
G1 X168.735 Y211.169 E34.24226
G1 X168 Y211.723 E34.28512
G1 X167.22 Y212.212 E34.32798
G1 X166.4 Y212.631 E34.37086
G1 X165.547 Y212.977 E34.41372
G1 X164.667 Y213.248 E34.4566
G1 X163.767 Y213.441 E34.49946
G1 X162.853 Y213.556 E34.54236
G1 X162.288 Y213.587 E34.5687
G1 X161.967 Y213.596 E34.58366
G1 X161.67 Y213.6 E34.59749
G1 X98.57 Y213.599 E37.53569
G1 X97.872 Y213.59 E37.56819
G1 X96.953 Y213.538 E37.61105
G1 X96.042 Y213.407 E37.65391
G1 X95.146 Y213.197 E37.69676
G1 X94.271 Y212.91 E37.73964
G1 X93.424 Y212.548 E37.78253
G1 X92.612 Y212.114 E37.8254
G1 X91.841 Y211.612 E37.86824
G1 X91.116 Y211.044 E37.91113
G1 X90.443 Y210.415 E37.95402
G1 X89.828 Y209.731 E37.99686
G1 X89.274 Y208.996 E38.03971
G1 X88.786 Y208.215 E38.0826
G1 X88.367 Y207.395 E38.12547
G1 X88.021 Y206.542 E38.16834
G1 X87.751 Y205.662 E38.2112
G1 X87.558 Y204.761 E38.2541
G1 X87.444 Y203.848 E38.29695
G1 X87.413 Y203.277 E38.32357
G1 X87.404 Y202.944 E38.33909
G1 X87.4 Y202.658 E38.3524
G1 X87.401 Y57.531 E45.11013
G1 X87.41 Y56.866 E45.14109
G1 X87.462 Y55.946 E45.184
G1 X87.594 Y55.035 E45.22686
G1 X87.805 Y54.139 E45.26973
G1 X88.092 Y53.264 E45.31261
G1 X88.455 Y52.418 E45.35547
G1 X88.621 Y52.109 E45.37181
G0 F1080 X88.889 Y51.606
G0 F6000 X89.286 Y51.722
G1 F1200 X89.788 Y50.971 E45.41387
G1 X90.355 Y50.267 E45.45596
G1 X90.981 Y49.617 E45.49798
G1 X91.662 Y49.024 E45.54003
G1 X92.394 Y48.494 E45.58211
G1 X93.169 Y48.031 E45.62415
G1 X93.982 Y47.638 E45.66619
G1 X94.827 Y47.318 E45.70827
G1 X95.696 Y47.075 E45.75028
G1 X96.584 Y46.909 E45.79235
G1 X97.723 Y46.813 E45.84557
G1 X98.044 Y46.804 E45.86053
G1 X98.33 Y46.8 E45.87385
G1 X161.293 Y46.8 E48.80567
G1 X162.137 Y46.811 E48.84497
G1 X163.039 Y46.864 E48.88704
G1 X163.932 Y46.996 E48.92908
G1 X164.81 Y47.207 E48.97112
G1 X165.666 Y47.495 E49.01318
G1 X166.493 Y47.857 E49.05522
G1 X167.285 Y48.292 E49.09729
G1 X168.036 Y48.794 E49.13935
G1 X168.739 Y49.361 E49.18141
G1 X169.389 Y49.988 E49.22346
G1 X169.981 Y50.67 E49.26551
G1 X170.511 Y51.401 E49.30756
G1 X170.973 Y52.177 E49.34961
G1 X171.366 Y52.99 E49.39166
G1 X171.684 Y53.835 E49.4337
G1 X171.927 Y54.705 E49.47576
G1 X172.092 Y55.593 E49.51782
G1 X172.187 Y56.723 E49.57062
G1 X172.196 Y57.043 E49.58553
G1 X172.2 Y57.33 E49.59889
G1 X172.199 Y202.39 E56.35349
G1 X172.19 Y203.117 E56.38735
G1 X172.139 Y204.019 E56.42942
G1 X172.008 Y204.913 E56.47149
G1 X171.799 Y205.791 E56.51351
G1 X171.513 Y206.648 E56.55558
G1 X171.152 Y207.476 E56.59764
G1 X170.72 Y208.268 E56.63965
G1 X170.219 Y209.02 E56.68173
G1 X169.653 Y209.724 E56.72379
G1 X169.028 Y210.375 E56.76581
G1 X168.347 Y210.969 E56.80789
G1 X167.616 Y211.5 E56.84996
G1 X166.842 Y211.964 E56.89198
G1 X166.029 Y212.358 E56.93405
G1 X165.185 Y212.678 E56.97608
G1 X164.315 Y212.923 E57.01817
G1 X163.428 Y213.089 E57.06019
G1 X162.277 Y213.187 E57.11397
G1 X161.956 Y213.196 E57.12893
G1 X161.67 Y213.2 E57.14225
G1 X98.575 Y213.199 E60.08021
G1 X97.877 Y213.19 E60.11272
G1 X96.976 Y213.139 E60.15474
G1 X96.082 Y213.007 E60.19682
G1 X95.204 Y212.798 E60.23885
G1 X94.347 Y212.511 E60.28093
G1 X93.52 Y212.15 E60.32295
G1 X92.727 Y211.717 E60.36502
G1 X91.976 Y211.216 E60.40705
G1 X91.272 Y210.65 E60.44912
G1 X90.621 Y210.024 E60.49117
G1 X90.028 Y209.343 E60.53322
G1 X89.498 Y208.612 E60.57526
G1 X89.034 Y207.837 E60.61732
G1 X88.64 Y207.024 E60.65939
G1 X88.32 Y206.18 E60.70142
G1 X88.076 Y205.31 E60.7435
G1 X87.91 Y204.422 E60.78556
G1 X87.813 Y203.267 E60.83953
G1 X87.804 Y202.934 E60.85504
G1 X87.8 Y202.658 E60.8679
G1 X87.801 Y57.536 E67.62538
G1 X87.81 Y56.871 E67.65635
G1 X87.862 Y55.969 E67.69842
G1 X87.994 Y55.076 E67.74046
G1 X88.204 Y54.198 E67.78249
G1 X88.491 Y53.341 E67.82458
G1 X88.853 Y52.514 E67.86661
G1 X89.013 Y52.222 E67.88212
G0 F1080 X89.286 Y51.722
G1 F3600 E57.88212
;MESH:basecaixa.stl
G0 F6000 X114.296 Y185.593
G0 X112.274 Y184.425
G0 X112.051 Y186
;TYPE:WALL-INNER
G1 F3600 E67.88212
G1 F1200 X112.445 Y187.475 E67.95321
G1 X113.525 Y188.555 E68.02433
G1 X115 Y188.949 E68.09542
G1 X116.475 Y188.555 E68.16651
G1 X117.555 Y187.475 E68.23763
G1 X117.949 Y186 E68.30872
G1 X117.555 Y184.525 E68.37981
G1 X116.475 Y183.445 E68.45093
G1 X115 Y183.051 E68.52202
G1 X113.525 Y183.445 E68.59311
G1 X112.445 Y184.525 E68.66423
G1 X112.198 Y185.45 E68.70881
G0 F1080 X112.051 Y186
G0 F6000 X112.465 Y186
G1 F1200 X112.804 Y187.268 E68.76993
G1 X113.732 Y188.196 E68.83104
G1 X115 Y188.535 E68.89215
G1 X116.268 Y188.196 E68.95327
G1 X117.196 Y187.268 E69.01438
G1 X117.535 Y186 E69.0755
G1 X117.196 Y184.732 E69.13662
G1 X116.268 Y183.804 E69.19773
G1 X115 Y183.465 E69.25884
G1 X113.732 Y183.804 E69.31996
G1 X112.804 Y184.732 E69.38107
G1 X112.612 Y185.45 E69.41568
G0 F1080 X112.465 Y186
G0 F6000 X112.879 Y186
G1 F1200 X113.163 Y187.061 E69.46682
G1 X113.939 Y187.837 E69.51792
G1 X115 Y188.121 E69.56907
G1 X116.061 Y187.837 E69.62021
G1 X116.837 Y187.061 E69.67131
G1 X117.121 Y186 E69.72246
G1 X116.837 Y184.939 E69.7736
G1 X116.061 Y184.163 E69.8247
G1 X115 Y183.879 E69.87584
G1 X113.939 Y184.163 E69.92699
G1 X113.163 Y184.939 E69.97809
G1 X113.026 Y185.45 E70.00272
G0 F1080 X112.879 Y186
G0 F6000 X113.293 Y186
;TYPE:WALL-OUTER
G1 F1200 X113.522 Y186.854 E70.04389
G1 X114.146 Y187.478 E70.08499
G1 X115 Y187.707 E70.12616
G1 X115.854 Y187.478 E70.16733
G1 X116.478 Y186.854 E70.20842
G1 X116.707 Y186 E70.24959
G1 X116.478 Y185.146 E70.29076
G1 X115.854 Y184.522 E70.33185
G1 X115 Y184.293 E70.37302
G1 X114.146 Y184.522 E70.41419
G1 X113.522 Y185.146 E70.45528
G1 X113.44 Y185.45 E70.46995
G0 F1080 X113.293 Y186
G0 F6000 X112.853 Y186
G1 F3600 E60.46995
G0 F6000 X113.309 Y186.978
G0 X114.022 Y187.691
G0 X114.902 Y187.927
G0 X117.726 Y187.575
G0 X115.704 Y186.407
G0 X117.726 Y203.665
G0 X117.726 Y201.39
G0 X160.6 Y201.6
;TYPE:WALL-INNER
G1 F3600 E70.46995
G1 F1200 X99.4 Y201.6 E73.31967
G1 X99.4 Y58.4 E79.98767
G1 X160.6 Y58.4 E82.83739
G1 X160.6 Y201.03 E89.47884
G0 F1080 X160.6 Y201.6
G0 F6000 X161 Y202
G1 F1200 X99 Y202 E92.36582
G1 X99 Y58 E99.07107
G1 X161 Y58 E101.95805
G1 X161 Y201.43 E108.63675
G0 F1080 X161 Y202
G0 F6000 X161.4 Y202.4
G1 F1200 X98.6 Y202.4 E111.56098
G1 X98.6 Y57.6 E118.30347
G1 X161.4 Y57.6 E121.22771
G1 X161.4 Y201.83 E127.94366
G0 F1080 X161.4 Y202.4
G0 F6000 X161.8 Y202.8
;TYPE:WALL-OUTER
G1 F1200 X98.2 Y202.8 E130.90514
G1 X98.2 Y57.2 E137.68489
G1 X161.8 Y57.2 E140.64637
G1 X161.8 Y202.23 E147.39957
G0 F1080 X161.8 Y202.8
G0 F6000 X161.53 Y202.53
G0 X160.49 Y201.21
G0 X160.21 Y201.21
;TYPE:SKIN
G1 F1200 X99.79 Y201.21 E150.21298
G1 X99.79 Y58.79 E156.84465
G1 X160.21 Y58.79 E159.65806
G1 X160.21 Y200.64 E166.26319
G0 F1080 X160.21 Y201.21
G1 F3600 E156.26319
G0 F6000 X160.49 Y201.21
G0 X117.655 Y201.39
G0 X117.655 Y203.665
G0 X115.407 Y186.704
G0 X116.575 Y188.726
G0 X117.655 Y187.532
G0 X117.904 Y187.676
G1 F3600 E166.26319
G1 F1200 X118.353 Y186 E166.34399
G1 X117.904 Y184.324 E166.42478
G1 X116.676 Y183.096 E166.50565
G1 X115 Y182.647 E166.58644
G1 X113.324 Y183.096 E166.66723
G1 X112.096 Y184.324 E166.7481
G1 X111.647 Y186 E166.82889
G1 X112.096 Y187.676 E166.90969
G1 X113.324 Y188.904 E166.99055
G1 X115 Y189.353 E167.07135
G1 X116.676 Y188.904 E167.15214
G1 X117.501 Y188.079 E167.20647
G0 F1080 X117.904 Y187.676
G1 F3600 E157.20647
G0 F6000 X117.655 Y187.532
G0 X113.425 Y188.726
G0 X114.593 Y186.704
G0 X113.425 Y203.665
G0 X113.425 Y201.39
G0 X100.357 Y201.49
G0 X100.357 Y201.049
G1 F3600 E167.20647
G1 F1200 X99.949 Y200.641 E167.23333
G0 F6000 X99.949 Y200.075
G1 F1200 X100.923 Y201.049 E167.29747
G0 F6000 X101.488 Y201.049
G1 F1200 X99.949 Y199.51 E167.39882
G0 F6000 X99.949 Y198.944
G1 F1200 X102.054 Y201.049 E167.53744
G0 F6000 X102.62 Y201.049
G1 F1200 X99.949 Y198.378 E167.71333
G0 F6000 X99.949 Y197.813
G1 F1200 X103.185 Y201.049 E167.92642
G0 F6000 X103.751 Y201.049
G1 F1200 X99.949 Y197.247 E168.17679
G0 F6000 X99.949 Y196.681
G1 F1200 X104.317 Y201.049 E168.46443
G0 F6000 X104.883 Y201.049
G1 F1200 X99.949 Y196.116 E168.78931
G0 F6000 X99.949 Y195.55
G1 F1200 X105.448 Y201.049 E169.15143
G0 F6000 X106.014 Y201.049
G1 F1200 X99.949 Y194.984 E169.55082
G0 F6000 X99.949 Y194.419
G1 F1200 X106.58 Y201.049 E169.98745
G0 F6000 X107.145 Y201.049
G1 F1200 X99.949 Y193.853 E170.46132
G0 F6000 X99.949 Y193.287
G1 F1200 X107.711 Y201.049 E170.97246
G0 F6000 X108.277 Y201.049
G1 F1200 X99.949 Y192.721 E171.52087
G0 F6000 X99.949 Y192.156
G1 F1200 X108.842 Y201.049 E172.10649
G0 F6000 X109.408 Y201.049
G1 F1200 X99.949 Y191.59 E172.72938
G0 F6000 X99.949 Y191.024
G1 F1200 X109.974 Y201.049 E173.38955
G0 F6000 X110.539 Y201.049
G1 F1200 X99.949 Y190.459 E174.08692
G0 F6000 X99.949 Y189.893
G1 F1200 X111.105 Y201.049 E174.82156
G0 F6000 X111.671 Y201.049
G1 F1200 X99.949 Y189.327 E175.59347
G0 F6000 X99.949 Y188.762
G1 F1200 X112.236 Y201.049 E176.40259
G0 F6000 X112.802 Y201.049
G1 F1200 X99.949 Y188.196 E177.24898
G0 F6000 X99.949 Y187.63
G1 F1200 X113.368 Y201.049 E178.13265
G0 F6000 X113.933 Y201.049
G1 F1200 X99.949 Y187.065 E179.05352
G0 F6000 X99.949 Y186.499
G1 F1200 X114.499 Y201.049 E180.01166
G0 F6000 X115.065 Y201.049
G1 F1200 X99.949 Y185.933 E181.00707
G0 F6000 X99.949 Y185.368
G1 F1200 X115.631 Y201.049 E182.03973
G0 F6000 X116.196 Y201.049
G1 F1200 X99.949 Y184.802 E183.10962
G0 F6000 X99.949 Y184.236
G1 F1200 X116.762 Y201.049 E184.21679
G0 F6000 X117.328 Y201.049
G1 F1200 X99.949 Y183.67 E185.36122
G0 F6000 X99.949 Y183.105
G1 F1200 X117.893 Y201.049 E186.54287
G0 F6000 X118.459 Y201.049
G1 F1200 X99.949 Y182.539 E187.76178
G0 F6000 X99.949 Y181.973
G1 F1200 X119.025 Y201.049 E189.01797
G0 F6000 X119.59 Y201.049
G1 F1200 X99.949 Y181.408 E190.31136
G0 F6000 X99.949 Y180.842
G1 F1200 X120.156 Y201.049 E191.64203
G0 F6000 X120.722 Y201.049
G1 F1200 X99.949 Y180.276 E193.00996
G0 F6000 X99.949 Y179.711
G1 F1200 X121.287 Y201.049 E194.41511
G0 F6000 X121.853 Y201.049
G1 F1200 X99.949 Y179.145 E195.85752
G0 F6000 X99.949 Y178.579
G1 F1200 X122.419 Y201.049 E197.33721
G0 F6000 X122.984 Y201.049
G1 F1200 X99.949 Y178.014 E198.85411
G0 F6000 X99.949 Y177.448
G1 F1200 X123.55 Y201.049 E200.40827
G0 F6000 X124.116 Y201.049
G1 F1200 X99.949 Y176.882 E201.99971
G0 F6000 X99.949 Y176.317
G1 F1200 X124.682 Y201.049 E203.62839
G0 F6000 X125.247 Y201.049
G1 F1200 X113.246 Y189.048 E204.41867
G0 F6000 X114.018 Y189.255
G1 F1200 X125.813 Y201.049 E205.19536
G0 F6000 X126.379 Y201.049
G1 F1200 X114.791 Y189.462 E205.95842
G0 F6000 X115.325 Y189.43
G1 F1200 X126.944 Y201.049 E206.72355
G0 F6000 X127.51 Y201.049
G1 F1200 X115.771 Y189.31 E207.49658
G0 F6000 X116.218 Y189.192
G1 F1200 X128.076 Y201.049 E208.27742
G0 F6000 X128.641 Y201.049
G1 F1200 X116.664 Y189.072 E209.06613
G0 F6000 X116.982 Y188.824
G1 F1200 X129.207 Y201.049 E209.87116
G0 F6000 X129.773 Y201.049
