;FLAVOR:Marlin
;TIME:3344
;Filament used: 4.03611m
;Layer height: 0.35
;MINX:91.976
;MINY:102.833
;MINZ:0.28
;MAXX:177.976
;MAXY:156.833
;MAXZ:39.83
;Generated with Creality Slicer 4.8.2-254
M140 S110
M105
M190 S110
M104 S235
M105
M109 S235
M82 ;absolute extrusion mode

G28 ;Home

G92 E0 ;Reset Extruder
G1 Z2.0 F3000 ;Move Z Axis up
G1 X10.1 Y20 Z0.28 F5000.0 ;Move to start position
G1 X10.1 Y200.0 Z0.28 F1500.0 E15 ;Draw the first line
G1 X10.4 Y200.0 Z0.28 F5000.0 ;Move to side a little
G1 X10.4 Y20 Z0.28 F1500.0 E30 ;Draw the second line
G92 E0 ;Reset Extruder
G1 Z2.0 F3000 ;Move Z Axis up

G92 E0
G92 E0
G1 F3600 E-10
;LAYER_COUNT:114
;LAYER:0
M107
G0 F6000 X95.862 Y105.46 Z0.28
;TYPE:SKIRT
G1 F3600 E0
G1 F1200 X96.602 Y104.884 E0.04367
G1 X97.388 Y104.372 E0.08735
G1 X98.215 Y103.93 E0.13101
G1 X99.077 Y103.56 E0.17469
G1 X99.967 Y103.264 E0.21836
G1 X100.879 Y103.046 E0.26203
G1 X101.806 Y102.905 E0.30569
G1 X102.677 Y102.846 E0.34634
G1 X102.998 Y102.837 E0.36129
G1 X103.306 Y102.833 E0.37563
G1 X166.269 Y102.833 E3.30745
G1 X167.125 Y102.844 E3.34732
G1 X168.061 Y102.898 E3.39097
G1 X168.989 Y103.03 E3.43462
G1 X169.903 Y103.242 E3.47831
G1 X170.795 Y103.531 E3.52197
G1 X171.66 Y103.894 E3.56565
G1 X172.49 Y104.33 E3.60931
G1 X173.281 Y104.835 E3.65301
G1 X174.025 Y105.406 E3.69668
G1 X174.718 Y106.038 E3.74035
G1 X175.355 Y106.726 E3.78401
G1 X175.93 Y107.467 E3.82768
G1 X176.441 Y108.253 E3.87134
G1 X176.883 Y109.081 E3.91504
G1 X177.252 Y109.943 E3.9587
G1 X177.547 Y110.833 E4.00236
G1 X177.765 Y111.745 E4.04602
G1 X177.905 Y112.673 E4.08972
G1 X177.963 Y113.534 E4.12991
G1 X177.972 Y113.854 E4.14481
G1 X177.976 Y114.163 E4.1592
G1 X177.975 Y143.233 E5.51282
G1 X177.966 Y143.96 E5.54668
G1 X177.915 Y144.897 E5.59037
G1 X177.783 Y145.825 E5.63402
G1 X177.574 Y146.739 E5.67768
G1 X177.287 Y147.632 E5.72136
G1 X176.925 Y148.498 E5.76506
G1 X176.491 Y149.329 E5.80872
G1 X175.987 Y150.12 E5.85239
G1 X175.418 Y150.865 E5.89604
G1 X174.787 Y151.56 E5.93975
G1 X174.1 Y152.198 E5.98341
G1 X173.361 Y152.775 E6.02706
G1 X172.575 Y153.287 E6.07074
G1 X171.749 Y153.73 E6.11439
G1 X170.887 Y154.102 E6.15811
G1 X169.998 Y154.398 E6.20174
G1 X169.086 Y154.618 E6.24542
G1 X168.159 Y154.759 E6.28908
G1 X167.275 Y154.82 E6.33034
G1 X166.954 Y154.829 E6.34529
G1 X166.646 Y154.833 E6.35964
G1 X124.909 Y154.833 E8.30309
G1 X122.301 Y154.87 E8.42454
G1 X119.78 Y154.977 E8.54203
G1 X117.285 Y155.154 E8.6585
G1 X114.785 Y155.402 E8.77548
G1 X112.292 Y155.721 E8.89252
G1 X109.772 Y156.117 E9.0113
G1 X106.982 Y156.637 E9.14345
G1 X106.054 Y156.77 E9.1871
G1 X105.275 Y156.82 E9.22345
G1 X104.956 Y156.829 E9.23831
G1 X104.646 Y156.833 E9.25275
G1 X103.541 Y156.832 E9.3042
G1 X102.843 Y156.823 E9.3367
G1 X101.907 Y156.771 E9.38036
G1 X100.978 Y156.639 E9.42405
G1 X100.064 Y156.429 E9.46772
G1 X99.171 Y156.142 E9.51139
G1 X98.306 Y155.779 E9.55507
G1 X97.475 Y155.345 E9.59873
G1 X96.684 Y154.841 E9.6424
G1 X95.939 Y154.271 E9.68608
G1 X95.245 Y153.64 E9.72976
G1 X94.608 Y152.953 E9.77338
G1 X94.031 Y152.213 E9.81708
G1 X93.519 Y151.427 E9.86076
G1 X93.076 Y150.6 E9.90444
G1 X92.705 Y149.739 E9.9481
G1 X92.409 Y148.849 E9.99177
G1 X92.19 Y147.937 E10.03544
G1 X92.049 Y147.01 E10.07911
G1 X91.989 Y146.121 E10.1206
G1 X91.98 Y145.788 E10.13611
G1 X91.976 Y145.491 E10.14994
G1 X91.977 Y114.358 E11.59962
G1 X91.986 Y113.693 E11.63059
G1 X92.039 Y112.757 E11.67424
G1 X92.171 Y111.828 E11.71794
G1 X92.382 Y110.914 E11.76161
G1 X92.67 Y110.022 E11.80526
G1 X93.033 Y109.157 E11.84894
G1 X93.468 Y108.326 E11.89262
G1 X93.972 Y107.536 E11.93625
G1 X94.542 Y106.791 E11.97993
G1 X95.174 Y106.097 E12.02364
G1 X95.444 Y105.847 E12.04077
G0 F1080 X95.862 Y105.46
G0 F6000 X96.25 Y105.656
G1 F1200 X96.986 Y105.103 E12.08364
G1 X97.767 Y104.615 E12.12652
G1 X98.587 Y104.197 E12.16938
G1 X99.441 Y103.852 E12.21227
G1 X100.321 Y103.582 E12.25513
G1 X101.221 Y103.39 E12.29798
G1 X102.135 Y103.276 E12.34087
G1 X102.688 Y103.246 E12.36666
G1 X103.009 Y103.237 E12.38161
G1 X103.306 Y103.233 E12.39544
G1 X166.269 Y103.233 E15.32726
G1 X167.119 Y103.244 E15.36684
G1 X168.038 Y103.297 E15.40971
G1 X168.949 Y103.43 E15.45258
G1 X169.845 Y103.641 E15.49544
G1 X170.719 Y103.929 E15.53829
G1 X171.566 Y104.292 E15.5812
G1 X172.377 Y104.727 E15.62405
G1 X173.147 Y105.231 E15.6669
G1 X173.871 Y105.8 E15.70978
G1 X174.543 Y106.43 E15.75267
G1 X175.158 Y107.115 E15.79554
G1 X175.711 Y107.851 E15.83841
G1 X176.198 Y108.632 E15.88126
G1 X176.615 Y109.453 E15.92414
G1 X176.96 Y110.307 E15.96703
G1 X177.229 Y111.187 E16.00988
G1 X177.421 Y112.088 E16.05277
G1 X177.534 Y113.001 E16.09561
G1 X177.563 Y113.545 E16.12098
G1 X177.572 Y113.865 E16.13589
G1 X177.576 Y114.163 E16.14976
G1 X177.575 Y143.228 E17.50315
G1 X177.566 Y143.955 E17.53701
G1 X177.515 Y144.874 E17.57986
G1 X177.384 Y145.786 E17.62277
G1 X177.174 Y146.682 E17.66562
G1 X176.888 Y147.557 E17.70848
G1 X176.527 Y148.404 E17.75136
G1 X176.093 Y149.216 E17.79423
G1 X175.591 Y149.988 E17.83711
G1 X175.023 Y150.713 E17.87999
G1 X174.395 Y151.386 E17.92286
G1 X173.711 Y152.002 E17.96572
G1 X172.976 Y152.556 E18.00858
G1 X172.196 Y153.045 E18.05144
G1 X171.376 Y153.464 E18.09432
G1 X170.523 Y153.81 E18.13718
G1 X169.643 Y154.081 E18.18006
G1 X168.743 Y154.274 E18.22292
G1 X167.829 Y154.389 E18.26582
G1 X167.264 Y154.42 E18.29216
G1 X166.943 Y154.429 E18.30712
G1 X166.646 Y154.433 E18.32095
G1 X124.903 Y154.433 E20.26468
G1 X122.278 Y154.47 E20.38692
G1 X119.77 Y154.577 E20.50381
G1 X117.25 Y154.755 E20.62144
G1 X114.735 Y155.004 E20.73912
G1 X112.246 Y155.323 E20.85597
G1 X109.708 Y155.722 E20.9756
G1 X106.909 Y156.244 E21.10818
G1 X105.997 Y156.374 E21.15108
G1 X105.264 Y156.42 E21.18528
G1 X104.945 Y156.429 E21.20014
G1 X104.646 Y156.433 E21.21406
G1 X103.546 Y156.432 E21.26528
G1 X102.848 Y156.423 E21.29779
G1 X101.929 Y156.371 E21.34065
G1 X101.018 Y156.24 E21.3835
G1 X100.122 Y156.03 E21.42636
G1 X99.247 Y155.743 E21.46923
G1 X98.4 Y155.381 E21.51213
G1 X97.588 Y154.947 E21.555
G1 X96.817 Y154.445 E21.59784
G1 X96.092 Y153.877 E21.64072
G1 X95.419 Y153.248 E21.68362
G1 X94.804 Y152.564 E21.72645
G1 X94.25 Y151.829 E21.76931
G1 X93.762 Y151.048 E21.81219
G1 X93.343 Y150.228 E21.85507
G1 X92.997 Y149.375 E21.89793
G1 X92.727 Y148.495 E21.94079
G1 X92.534 Y147.594 E21.9837
G1 X92.42 Y146.681 E22.02654
G1 X92.389 Y146.11 E22.05317
G1 X92.38 Y145.777 E22.06868
G1 X92.376 Y145.491 E22.082
G1 X92.377 Y114.364 E23.5314
G1 X92.386 Y113.699 E23.56237
G1 X92.438 Y112.779 E23.60528
G1 X92.57 Y111.868 E23.64814
G1 X92.781 Y110.972 E23.691
G1 X93.068 Y110.097 E23.73388
G1 X93.431 Y109.251 E23.77675
G1 X93.865 Y108.439 E23.81962
G1 X94.368 Y107.668 E23.86249
G1 X94.937 Y106.944 E23.90536
G1 X95.565 Y106.272 E23.94819
G1 X95.827 Y106.037 E23.96458
G0 F1080 X96.25 Y105.656
G0 F6000 X96.638 Y105.857
G1 F1200 X97.37 Y105.327 E24.00666
G1 X98.145 Y104.864 E24.0487
G1 X98.958 Y104.471 E24.09075
G1 X99.803 Y104.151 E24.13282
G1 X100.672 Y103.908 E24.17484
G1 X101.56 Y103.742 E24.2169
G1 X102.699 Y103.646 E24.27013
G1 X103.02 Y103.637 E24.28508
G1 X103.306 Y103.633 E24.2984
G1 X166.269 Y103.633 E27.23022
G1 X167.113 Y103.644 E27.26952
G1 X168.015 Y103.697 E27.3116
G1 X168.908 Y103.829 E27.35363
G1 X169.786 Y104.04 E27.39568
G1 X170.642 Y104.328 E27.43773
G1 X171.469 Y104.69 E27.47977
G1 X172.261 Y105.125 E27.52184
G1 X173.012 Y105.627 E27.56391
G1 X173.715 Y106.194 E27.60596
G1 X174.365 Y106.821 E27.64801
G1 X174.957 Y107.503 E27.69007
G1 X175.487 Y108.234 E27.73211
G1 X175.949 Y109.01 E27.77416
G1 X176.342 Y109.823 E27.81621
G1 X176.66 Y110.668 E27.85825
G1 X176.903 Y111.538 E27.90031
G1 X177.068 Y112.426 E27.94237
G1 X177.163 Y113.556 E27.99517
G1 X177.172 Y113.876 E28.01008
G1 X177.176 Y114.163 E28.02344
G1 X177.175 Y143.223 E29.3766
G1 X177.166 Y143.95 E29.41045
G1 X177.115 Y144.852 E29.45252
G1 X176.984 Y145.746 E29.49459
G1 X176.775 Y146.624 E29.53662
G1 X176.489 Y147.481 E29.57869
G1 X176.128 Y148.309 E29.62075
G1 X175.696 Y149.101 E29.66276
G1 X175.195 Y149.853 E29.70483
G1 X174.629 Y150.557 E29.7469
G1 X174.004 Y151.208 E29.78892
G1 X173.323 Y151.802 E29.831
G1 X172.592 Y152.333 E29.87307
G1 X171.818 Y152.797 E29.91509
G1 X171.005 Y153.191 E29.95716
G1 X170.161 Y153.511 E29.99919
G1 X169.291 Y153.756 E30.04127
G1 X168.404 Y153.922 E30.08329
G1 X167.253 Y154.02 E30.13708
G1 X166.932 Y154.029 E30.15203
G1 X166.646 Y154.033 E30.16535
G1 X124.897 Y154.033 E32.10936
G1 X122.291 Y154.07 E32.23072
G1 X119.726 Y154.179 E32.35026
G1 X117.219 Y154.357 E32.46729
G1 X114.678 Y154.608 E32.58619
G1 X112.17 Y154.929 E32.70393
G1 X109.672 Y155.322 E32.82167
G1 X106.835 Y155.851 E32.95605
G1 X105.941 Y155.977 E32.99809
G1 X105.253 Y156.02 E33.03019
G1 X104.934 Y156.029 E33.04505
G1 X104.646 Y156.033 E33.05846
G1 X103.551 Y156.032 E33.10945
G1 X102.853 Y156.023 E33.14196
G1 X101.952 Y155.972 E33.18398
G1 X101.058 Y155.84 E33.22606
G1 X100.18 Y155.631 E33.26808
G1 X99.323 Y155.344 E33.31017
G1 X98.496 Y154.983 E33.35218
G1 X97.703 Y154.55 E33.39426
G1 X96.952 Y154.049 E33.43629
G1 X96.248 Y153.483 E33.47835
G1 X95.597 Y152.857 E33.52041
G1 X95.004 Y152.176 E33.56246
G1 X94.474 Y151.445 E33.6045
G1 X94.01 Y150.67 E33.64656
G1 X93.616 Y149.857 E33.68863
G1 X93.296 Y149.013 E33.73066
G1 X93.052 Y148.143 E33.77273
G1 X92.886 Y147.255 E33.8148
G1 X92.789 Y146.1 E33.86877
G1 X92.78 Y145.767 E33.88428
G1 X92.776 Y145.491 E33.89713
G1 X92.777 Y114.369 E35.3463
G1 X92.786 Y113.704 E35.37727
G1 X92.838 Y112.802 E35.41934
G1 X92.97 Y111.909 E35.46138
G1 X93.18 Y111.031 E35.50341
G1 X93.467 Y110.174 E35.5455
G1 X93.829 Y109.347 E35.58753
G1 X94.262 Y108.555 E35.62956
G1 X94.764 Y107.804 E35.67163
G1 X95.331 Y107.1 E35.71372
G1 X95.957 Y106.45 E35.75574
G1 X96.209 Y106.231 E35.77128
G0 F1080 X96.638 Y105.857
G1 F3600 E25.77128
;MESH:lugardedoteste.stl
G0 F6000 X119.661 Y128.072
G0 X118.781 Y125.948
G0 X120.721 Y127.035
G0 X121.078 Y127.273
G0 X122.904 Y128.833
;TYPE:WALL-INNER
G1 F3600 E35.77128
G1 F1200 X122.68 Y127.713 E35.82447
G1 X122.047 Y126.765 E35.87755
G1 X121.096 Y126.128 E35.93085
G1 X119.976 Y125.905 E35.98402
G1 X118.856 Y126.128 E36.0372
G1 X117.907 Y126.765 E36.09042
G1 X117.271 Y127.713 E36.14358
G1 X117.048 Y128.833 E36.19675
G1 X117.271 Y129.953 E36.24993
G1 X117.907 Y130.902 E36.30312
G1 X118.856 Y131.538 E36.35632
G1 X119.976 Y131.761 E36.40949
G1 X121.096 Y131.538 E36.46267
G1 X122.047 Y130.902 E36.51594
G1 X122.68 Y129.953 E36.56906
G1 X122.793 Y129.392 E36.59571
G0 F1080 X122.904 Y128.833
G0 F6000 X122.496 Y128.833
G1 F1200 X122.303 Y127.869 E36.64148
G1 X121.758 Y127.053 E36.68718
G1 X120.94 Y126.505 E36.73302
G1 X119.976 Y126.313 E36.77879
G1 X119.012 Y126.505 E36.82456
G1 X118.195 Y127.053 E36.87037
G1 X117.648 Y127.869 E36.91611
G1 X117.456 Y128.833 E36.96188
G1 X117.648 Y129.797 E37.00765
G1 X118.195 Y130.614 E37.05344
G1 X119.012 Y131.161 E37.09922
G1 X119.976 Y131.353 E37.14499
G1 X120.94 Y131.161 E37.19076
G1 X121.758 Y130.614 E37.23658
G1 X122.303 Y129.797 E37.28231
G1 X122.385 Y129.391 E37.3016
G0 F1080 X122.496 Y128.833
G0 F6000 X122.088 Y128.833
G1 F1200 X121.926 Y128.025 E37.33997
G1 X121.469 Y127.341 E37.37827
G1 X120.784 Y126.882 E37.41667
G1 X119.976 Y126.721 E37.45503
G1 X119.168 Y126.882 E37.49339
G1 X118.483 Y127.341 E37.53179
G1 X118.025 Y128.025 E37.57012
G1 X117.864 Y128.833 E37.60848
G1 X118.025 Y129.641 E37.64685
G1 X118.483 Y130.326 E37.68522
G1 X119.168 Y130.784 E37.72359
G1 X119.976 Y130.945 E37.76195
G1 X120.784 Y130.784 E37.80031
G1 X121.469 Y130.326 E37.83868
G1 X121.926 Y129.641 E37.87703
G1 X121.976 Y129.391 E37.8889
G0 F1080 X122.088 Y128.833
G0 F6000 X121.68 Y128.833
;TYPE:WALL-OUTER
G1 F1200 X121.549 Y128.181 E37.91986
G1 X121.18 Y127.629 E37.95078
G1 X120.628 Y127.259 E37.98172
G1 X119.976 Y127.129 E38.01268
G1 X119.324 Y127.259 E38.04364
G1 X118.771 Y127.629 E38.07462
G1 X118.402 Y128.181 E38.10554
G1 X118.272 Y128.833 E38.1365
G1 X118.402 Y129.485 E38.16745
G1 X118.771 Y130.038 E38.19841
G1 X119.324 Y130.407 E38.22937
G1 X119.976 Y130.537 E38.26032
G1 X120.628 Y130.407 E38.29128
G1 X121.18 Y130.038 E38.3222
G1 X121.549 Y129.485 E38.35316
G1 X121.568 Y129.391 E38.35762
G0 F1080 X121.68 Y128.833
G0 F6000 X122.12 Y128.833
G1 F3600 E28.35762
G0 F6000 X121.773 Y129.578
G0 X121.352 Y130.21
G0 X120.721 Y130.631
G0 X117.77 Y131.039
G0 X119.394 Y129.415
G0 X117.77 Y144.498
G0 X117.77 Y142.223
G0 X104.376 Y142.433
;TYPE:WALL-INNER
G1 F3600 E38.35762
G1 F1200 X104.376 Y115.233 E39.62417
G1 X165.576 Y115.233 E42.4739
G1 X165.576 Y142.433 E43.74044
G1 X104.946 Y142.433 E46.56363
G0 F1080 X104.376 Y142.433
G0 F6000 X103.976 Y142.833
G1 F1200 X103.976 Y114.833 E47.86743
G1 X165.976 Y114.833 E50.75441
G1 X165.976 Y142.833 E52.0582
G1 X104.546 Y142.833 E54.91864
G0 F1080 X103.976 Y142.833
G0 F6000 X104.376 Y143.233
G1 F1200 X104.376 Y145.233 E55.01177
G1 X103.576 Y145.233 E55.04902
G1 X103.576 Y114.433 E56.4832
G1 X166.376 Y114.433 E59.40743
G1 X166.376 Y143.233 E60.74848
G1 X104.946 Y143.233 E63.60892
G0 F1080 X104.376 Y143.233
G0 F6000 X104.776 Y143.633
;TYPE:WALL-OUTER
G1 F1200 X104.776 Y145.633 E63.70204
G1 X103.176 Y145.633 E63.77655
G1 X103.176 Y114.033 E65.24797
G1 X166.776 Y114.033 E68.20946
G1 X166.776 Y143.633 E69.58776
G1 X105.346 Y143.633 E72.4482
G0 F1080 X104.776 Y143.633
G0 F6000 X104.476 Y143.633
G0 X104.486 Y142.043
G0 X104.766 Y142.043
;TYPE:SKIN
G1 F1200 X104.766 Y115.623 E73.67842
G1 X165.186 Y115.623 E76.49183
G1 X165.186 Y142.043 E77.72206
G1 X105.336 Y142.043 E80.50892
G0 F1080 X104.766 Y142.043
G1 F3600 E70.50892
G0 F6000 X104.486 Y142.043
G0 X117.829 Y142.223
G0 X117.829 Y144.498
G0 X119.661 Y129.594
G0 X118.781 Y131.718
G0 X117.829 Y130.983
G0 X117.626 Y131.183
G1 F3600 E80.50892
G1 F1200 X118.704 Y131.905 E80.56934
G1 X119.976 Y132.159 E80.62974
G1 X121.248 Y131.905 E80.69013
G1 X122.328 Y131.183 E80.75063
G1 X123.047 Y130.105 E80.81096
G1 X123.302 Y128.833 E80.87137
G1 X123.047 Y127.561 E80.93178
G1 X122.328 Y126.484 E80.99208
G1 X121.248 Y125.761 E81.0526
G1 X119.976 Y125.507 E81.11299
G1 X118.704 Y125.761 E81.17339
G1 X117.626 Y126.484 E81.23383
G1 X116.904 Y127.561 E81.29421
G1 X116.65 Y128.833 E81.35461
G1 X116.904 Y130.105 E81.41501
G1 X117.309 Y130.71 E81.44891
G0 F1080 X117.626 Y131.183
G1 F3600 E71.44891
G0 F6000 X117.829 Y130.983
G0 X119.394 Y129.415
G0 X117.77 Y144.498
G0 X117.77 Y142.223
G0 X105.112 Y142.323
G0 X105.112 Y141.882
G1 F3600 E81.44891
G1 F1200 X104.925 Y141.695 E81.46122
G0 F6000 X104.925 Y141.129
G1 F1200 X105.678 Y141.882 E81.51081
G0 F6000 X106.244 Y141.882
G1 F1200 X104.925 Y140.563 E81.59767
G0 F6000 X104.925 Y139.997
G1 F1200 X106.809 Y141.882 E81.72177
G0 F6000 X107.375 Y141.882
G1 F1200 X104.925 Y139.432 E81.8831
G0 F6000 X104.925 Y138.866
G1 F1200 X107.941 Y141.882 E82.08171
G0 F6000 X108.506 Y141.882
G1 F1200 X104.925 Y138.3 E82.31756
G0 F6000 X104.925 Y137.735
G1 F1200 X109.072 Y141.882 E82.59065
G0 F6000 X109.638 Y141.882
G1 F1200 X104.925 Y137.169 E82.901
G0 F6000 X104.925 Y136.603
G1 F1200 X110.204 Y141.882 E83.24864
G0 F6000 X110.769 Y141.882
G1 F1200 X104.925 Y136.038 E83.63347
G0 F6000 X104.925 Y135.472
G1 F1200 X111.335 Y141.882 E84.05558
G0 F6000 X111.901 Y141.882
G1 F1200 X104.925 Y134.906 E84.51496
G0 F6000 X104.925 Y134.341
G1 F1200 X112.466 Y141.882 E85.01155
G0 F6000 X113.032 Y141.882
G1 F1200 X104.925 Y133.775 E85.54541
G0 F6000 X104.925 Y133.209
G1 F1200 X113.598 Y141.882 E86.11654
G0 F6000 X114.163 Y141.882
G1 F1200 X104.925 Y132.644 E86.72488
G0 F6000 X104.925 Y132.078
