;FLAVOR:Marlin
;TIME:4381
;Filament used: 6.39271m
;Layer height: 0.35
;MINX:40
;MINY:87
;MINZ:0.28
;MAXX:220
;MAXY:173
;MAXZ:2.73
;Generated with Creality Slicer 4.8.2-254
M140 S110
M105
M190 S110
M104 S235
M105
M109 S235
M82 ;absolute extrusion mode

G28 ;Home

G92 E0 ;Reset Extruder
G1 Z2.0 F3000 ;Move Z Axis up
G1 X10.1 Y20 Z0.28 F5000.0 ;Move to start position
G1 X10.1 Y200.0 Z0.28 F1500.0 E15 ;Draw the first line
G1 X10.4 Y200.0 Z0.28 F5000.0 ;Move to side a little
G1 X10.4 Y20 Z0.28 F1500.0 E30 ;Draw the second line
G92 E0 ;Reset Extruder
G1 Z2.0 F3000 ;Move Z Axis up

G92 E0
G92 E0
G1 F3600 E-10
;LAYER_COUNT:8
;LAYER:0
M107
G0 F6000 X51.163 Y88.692 Z0.28
;TYPE:SKIRT
G1 F3600 E0
G1 F1200 X51.978 Y88.227 E0.04369
G1 X52.83 Y87.834 E0.08738
G1 X53.712 Y87.515 E0.13106
G1 X54.617 Y87.272 E0.17469
G1 X55.541 Y87.108 E0.21839
G1 X56.701 Y87.013 E0.27258
G1 X57.021 Y87.004 E0.28749
G1 X57.33 Y87 E0.30188
G1 X202.293 Y87 E7.05196
G1 X203.149 Y87.011 E7.09182
G1 X204.085 Y87.065 E7.13548
G1 X205.013 Y87.197 E7.17913
G1 X205.927 Y87.409 E7.22282
G1 X206.819 Y87.698 E7.26648
G1 X207.684 Y88.061 E7.31016
G1 X208.514 Y88.497 E7.35381
G1 X209.305 Y89.002 E7.39751
G1 X210.049 Y89.573 E7.44118
G1 X210.742 Y90.205 E7.48486
G1 X211.379 Y90.893 E7.52852
G1 X211.954 Y91.634 E7.57219
G1 X212.465 Y92.42 E7.61584
G1 X212.907 Y93.248 E7.65955
G1 X213.276 Y94.11 E7.70321
G1 X213.571 Y95 E7.74687
G1 X213.789 Y95.912 E7.79053
G1 X213.951 Y97.07 E7.84498
G1 X214.047 Y98.205 E7.89802
G1 X214.099 Y98.916 E7.93121
G1 X214.351 Y101.416 E8.04821
G1 X214.67 Y103.888 E8.16427
G1 X215.066 Y106.395 E8.28246
G1 X215.534 Y108.891 E8.40071
G1 X216.062 Y111.327 E8.51677
G1 X216.654 Y113.733 E8.63215
G1 X217.339 Y116.204 E8.75155
G1 X218.079 Y118.61 E8.86876
G1 X218.903 Y121.042 E8.98833
G1 X219.351 Y122.305 E9.05073
G1 X219.526 Y122.843 E9.07707
G1 X219.757 Y123.752 E9.12074
G1 X219.91 Y124.678 E9.16445
G1 X219.985 Y125.667 E9.21063
G1 X219.995 Y125.993 E9.22582
G1 X220 Y126.33 E9.24151
G1 X219.999 Y131.441 E9.4795
G1 X219.988 Y132.167 E9.51331
G1 X219.934 Y133.103 E9.55697
G1 X219.8 Y134.031 E9.60063
G1 X219.588 Y134.945 E9.64432
G1 X219.415 Y135.505 E9.67161
G1 X219.284 Y135.892 E9.69063
G1 X218.564 Y137.932 E9.79137
G1 X217.783 Y140.364 E9.91031
G1 X217.087 Y142.759 E10.02644
G1 X216.453 Y145.198 E10.14379
G1 X215.88 Y147.682 E10.26249
G1 X215.394 Y150.115 E10.37802
G1 X214.965 Y152.62 E10.49636
G1 X214.615 Y155.077 E10.61192
G1 X214.331 Y157.587 E10.72954
G1 X214.117 Y160.102 E10.84708
G1 X213.986 Y162.43 E10.95565
G1 X213.956 Y162.844 E10.97498
G1 X213.843 Y163.775 E11.01865
G1 X213.652 Y164.693 E11.06231
G1 X213.383 Y165.592 E11.106
G1 X213.038 Y166.464 E11.14967
G1 X212.621 Y167.304 E11.19334
G1 X212.133 Y168.105 E11.23701
G1 X211.579 Y168.862 E11.28069
G1 X210.963 Y169.568 E11.32432
G1 X210.288 Y170.22 E11.36802
G1 X209.561 Y170.812 E11.41168
G1 X208.786 Y171.34 E11.45534
G1 X207.968 Y171.8 E11.49904
G1 X207.115 Y172.188 E11.54268
G1 X206.231 Y172.502 E11.58636
G1 X205.324 Y172.74 E11.63002
G1 X204.4 Y172.9 E11.67369
G1 X203.299 Y172.987 E11.72512
G1 X202.98 Y172.996 E11.73998
G1 X202.67 Y173 E11.75441
G1 X57.565 Y172.999 E18.51111
G1 X56.867 Y172.99 E18.54361
G1 X55.931 Y172.938 E18.58726
G1 X55.002 Y172.806 E18.63096
G1 X54.088 Y172.596 E18.67463
G1 X53.195 Y172.309 E18.7183
G1 X52.33 Y171.946 E18.76198
G1 X51.499 Y171.512 E18.80564
G1 X50.708 Y171.008 E18.84931
G1 X49.963 Y170.438 E18.89299
G1 X49.269 Y169.807 E18.93667
G1 X48.632 Y169.12 E18.98029
G1 X48.055 Y168.38 E19.02399
G1 X47.543 Y167.594 E19.06767
G1 X47.1 Y166.767 E19.11135
G1 X46.729 Y165.906 E19.15501
G1 X46.433 Y165.016 E19.19868
G1 X46.214 Y164.104 E19.24235
G1 X46.073 Y163.177 E19.28602
G1 X46.027 Y162.626 E19.31176
G1 X45.951 Y161.307 E19.37328
G1 X45.763 Y158.705 E19.49476
G1 X45.512 Y156.206 E19.61171
G1 X45.187 Y153.697 E19.72951
G1 X44.801 Y151.25 E19.84486
G1 X44.331 Y148.742 E19.96368
G1 X43.807 Y146.323 E20.07893
G1 X43.195 Y143.836 E20.19819
G1 X42.529 Y141.429 E20.31448
G1 X41.782 Y138.999 E20.43286
G1 X40.989 Y136.655 E20.54808
G1 X40.633 Y135.644 E20.59799
G1 X40.36 Y134.746 E20.6417
G1 X40.164 Y133.829 E20.68536
G1 X40.047 Y132.899 E20.72901
G1 X40.013 Y132.299 E20.75699
G1 X40.004 Y131.979 E20.7719
G1 X40 Y131.67 E20.78629
G1 X40.001 Y126.536 E21.02535
G1 X40.012 Y125.829 E21.05827
G1 X40.067 Y124.893 E21.10193
G1 X40.201 Y123.964 E21.14564
G1 X40.414 Y123.051 E21.18929
G1 X40.676 Y122.237 E21.22911
G1 X41.564 Y119.722 E21.3533
G1 X42.337 Y117.319 E21.47084
G1 X43.04 Y114.904 E21.58796
G1 X43.674 Y112.465 E21.70531
G1 X44.236 Y110.026 E21.82185
G1 X44.742 Y107.512 E21.94126
G1 X45.159 Y105.069 E22.05667
G1 X45.514 Y102.577 E22.17388
G1 X45.801 Y100.054 E22.29211
G1 X46.021 Y97.461 E22.41329
G1 X46.039 Y97.215 E22.42477
G1 X46.146 Y96.283 E22.46846
G1 X46.333 Y95.364 E22.51213
G1 X46.597 Y94.464 E22.5558
G1 X46.937 Y93.59 E22.59947
G1 X47.35 Y92.748 E22.64314
G1 X47.833 Y91.944 E22.68681
G1 X48.383 Y91.185 E22.73046
G1 X48.996 Y90.475 E22.77414
G1 X49.666 Y89.819 E22.8178
G1 X50.391 Y89.223 E22.8615
G1 X50.693 Y89.015 E22.87857
G0 F1080 X51.163 Y88.692
G0 F6000 X51.534 Y88.933
G1 F1200 X52.342 Y88.492 E22.92144
G1 X53.186 Y88.123 E22.96433
G1 X54.058 Y87.828 E23.00719
G1 X54.953 Y87.611 E23.05008
G1 X55.863 Y87.471 E23.09295
G1 X56.712 Y87.413 E23.13257
G1 X57.032 Y87.404 E23.14748
G1 X57.33 Y87.4 E23.16136
G1 X202.293 Y87.4 E29.91144
G1 X203.143 Y87.411 E29.95102
G1 X204.062 Y87.464 E29.99389
G1 X204.973 Y87.597 E30.03676
G1 X205.869 Y87.808 E30.07962
G1 X206.743 Y88.096 E30.12247
G1 X207.59 Y88.459 E30.16538
G1 X208.401 Y88.894 E30.20823
G1 X209.171 Y89.398 E30.25108
G1 X209.895 Y89.967 E30.29396
G1 X210.567 Y90.597 E30.33685
G1 X211.182 Y91.282 E30.37972
G1 X211.735 Y92.018 E30.42259
G1 X212.222 Y92.799 E30.46544
G1 X212.639 Y93.62 E30.50832
G1 X212.984 Y94.474 E30.55121
G1 X213.253 Y95.354 E30.59406
G1 X213.445 Y96.255 E30.63695
G1 X213.552 Y97.104 E30.6768
G1 X213.648 Y98.234 E30.72961
G1 X213.7 Y98.949 E30.76299
G1 X213.951 Y101.436 E30.87938
G1 X214.278 Y103.97 E30.99835
G1 X214.671 Y106.453 E31.11541
G1 X215.139 Y108.95 E31.23371
G1 X215.677 Y111.436 E31.35215
G1 X216.273 Y113.854 E31.46811
G1 X216.957 Y116.323 E31.58741
G1 X217.693 Y118.718 E31.70407
G1 X218.526 Y121.178 E31.82501
G1 X218.974 Y122.439 E31.88732
G1 X219.143 Y122.958 E31.91274
G1 X219.369 Y123.851 E31.95563
G1 X219.517 Y124.759 E31.99847
G1 X219.585 Y125.679 E32.04143
G1 X219.595 Y126.005 E32.05661
G1 X219.6 Y126.33 E32.07175
G1 X219.599 Y131.435 E32.30946
G1 X219.588 Y132.161 E32.34327
G1 X219.534 Y133.08 E32.38613
G1 X219.4 Y133.991 E32.42901
G1 X219.188 Y134.886 E32.47184
G1 X219.036 Y135.378 E32.49582
G1 X218.907 Y135.759 E32.51455
G1 X218.182 Y137.813 E32.61597
G1 X217.401 Y140.245 E32.73491
G1 X216.704 Y142.643 E32.8512
G1 X216.062 Y145.113 E32.97003
G1 X215.492 Y147.587 E33.08825
G1 X215.001 Y150.041 E33.20478
G1 X214.567 Y152.573 E33.3244
G1 X214.216 Y155.042 E33.44052
G1 X213.932 Y157.544 E33.55778
G1 X213.717 Y160.079 E33.67624
G1 X213.586 Y162.408 E33.78486
G1 X213.557 Y162.813 E33.80377
G1 X213.446 Y163.727 E33.84664
G1 X213.256 Y164.628 E33.88952
G1 X212.988 Y165.509 E33.9324
G1 X212.645 Y166.363 E33.97525
G1 X212.23 Y167.184 E34.01808
G1 X211.744 Y167.967 E34.061
G1 X211.193 Y168.704 E34.10384
G1 X210.579 Y169.39 E34.14671
G1 X209.908 Y170.021 E34.1896
G1 X209.186 Y170.591 E34.23244
G1 X208.416 Y171.096 E34.27531
G1 X207.605 Y171.533 E34.31821
G1 X206.76 Y171.898 E34.36107
G1 X205.886 Y172.187 E34.40394
G1 X204.99 Y172.4 E34.44682
G1 X204.08 Y172.535 E34.48966
G1 X203.288 Y172.587 E34.52662
G1 X202.969 Y172.596 E34.54148
G1 X202.67 Y172.6 E34.5554
G1 X57.57 Y172.599 E41.31186
G1 X56.872 Y172.59 E41.34437
G1 X55.953 Y172.538 E41.38723
G1 X55.042 Y172.407 E41.43009
G1 X54.146 Y172.197 E41.47294
G1 X53.271 Y171.91 E41.51582
G1 X52.424 Y171.548 E41.55871
G1 X51.612 Y171.114 E41.60158
G1 X50.841 Y170.612 E41.64442
G1 X50.116 Y170.044 E41.68731
G1 X49.443 Y169.415 E41.7302
G1 X48.828 Y168.731 E41.77303
G1 X48.274 Y167.996 E41.81589
G1 X47.786 Y167.215 E41.85877
G1 X47.367 Y166.395 E41.90165
G1 X47.021 Y165.542 E41.94451
G1 X46.751 Y164.662 E41.98737
G1 X46.558 Y163.761 E42.03028
G1 X46.427 Y162.603 E42.08455
G1 X46.355 Y161.351 E42.14294
G1 X46.162 Y158.672 E42.26801
G1 X45.909 Y156.151 E42.38599
G1 X45.586 Y153.655 E42.50318
G1 X45.196 Y151.186 E42.61957
G1 X44.72 Y148.649 E42.73977
G1 X44.194 Y146.222 E42.8554
G1 X43.585 Y143.743 E42.97427
G1 X42.914 Y141.32 E43.09134
G1 X42.164 Y138.88 E43.2102
G1 X41.367 Y136.522 E43.3261
G1 X41.011 Y135.511 E43.37601
G1 X40.743 Y134.63 E43.41889
G1 X40.553 Y133.729 E43.46177
G1 X40.441 Y132.815 E43.50465
G1 X40.413 Y132.288 E43.52922
G1 X40.404 Y131.968 E43.54413
G1 X40.4 Y131.67 E43.558
G1 X40.401 Y126.542 E43.79678
G1 X40.412 Y125.835 E43.82971
G1 X40.467 Y124.916 E43.87258
G1 X40.6 Y124.005 E43.91545
G1 X40.813 Y123.109 E43.95833
G1 X41.053 Y122.37 E43.99451
G1 X41.946 Y119.841 E44.1194
G1 X42.716 Y117.447 E44.2365
G1 X43.425 Y115.01 E44.35468
G1 X44.067 Y112.542 E44.47342
G1 X44.632 Y110.089 E44.59064
G1 X45.129 Y107.62 E44.70791
G1 X45.556 Y105.122 E44.82591
G1 X45.914 Y102.612 E44.94397
G1 X46.195 Y100.132 E45.06019
G1 X46.426 Y97.415 E45.18716
G1 X46.438 Y97.244 E45.19515
G1 X46.544 Y96.329 E45.23804
G1 X46.729 Y95.428 E45.28087
G1 X46.992 Y94.545 E45.32377
G1 X47.33 Y93.689 E45.36662
G1 X47.742 Y92.865 E45.40952
G1 X48.223 Y92.081 E45.45235
G1 X48.77 Y91.34 E45.49523
G1 X49.38 Y90.651 E45.53808
G1 X50.047 Y90.016 E45.58097
G1 X50.767 Y89.442 E45.62384
G1 X51.059 Y89.248 E45.64017
G0 F1080 X51.534 Y88.933
G0 F6000 X51.904 Y89.179
G1 F1200 X52.705 Y88.762 E45.68222
G1 X53.54 Y88.418 E45.72427
G1 X54.402 Y88.148 E45.76633
G1 X55.284 Y87.956 E45.80836
G1 X56.18 Y87.843 E45.85041
G1 X56.723 Y87.813 E45.87574
G1 X57.043 Y87.804 E45.89064
G1 X57.33 Y87.8 E45.90401
G1 X202.293 Y87.8 E52.65409
G1 X203.137 Y87.811 E52.6934
G1 X204.039 Y87.864 E52.73547
G1 X204.932 Y87.996 E52.7775
G1 X205.81 Y88.207 E52.81955
G1 X206.666 Y88.495 E52.8616
G1 X207.493 Y88.857 E52.90364
G1 X208.285 Y89.292 E52.94572
G1 X209.036 Y89.794 E52.98778
G1 X209.739 Y90.361 E53.02983
G1 X210.389 Y90.988 E53.07189
G1 X210.981 Y91.67 E53.11394
G1 X211.511 Y92.401 E53.15598
G1 X211.973 Y93.177 E53.19804
G1 X212.366 Y93.99 E53.24008
G1 X212.684 Y94.835 E53.28212
G1 X212.927 Y95.705 E53.32419
G1 X213.092 Y96.593 E53.36624
G1 X213.154 Y97.138 E53.39178
G1 X213.249 Y98.263 E53.44435
G1 X213.301 Y98.982 E53.47792
G1 X213.554 Y101.491 E53.59534
G1 X213.88 Y104.012 E53.71371
G1 X214.283 Y106.558 E53.83374
G1 X214.741 Y109.003 E53.94957
G1 X215.29 Y111.537 E54.0703
G1 X215.878 Y113.927 E54.18491
G1 X216.575 Y116.442 E54.30643
G1 X217.318 Y118.859 E54.42417
G1 X218.143 Y121.293 E54.54384
G1 X218.597 Y122.573 E54.60708
G1 X218.76 Y123.073 E54.63157
G1 X218.981 Y123.949 E54.67364
G1 X219.123 Y124.84 E54.71565
G1 X219.185 Y125.691 E54.75538
G1 X219.195 Y126.017 E54.77057
G1 X219.2 Y126.33 E54.78515
G1 X219.199 Y131.429 E55.02258
G1 X219.188 Y132.155 E55.05639
G1 X219.134 Y133.056 E55.09842
G1 X219.001 Y133.949 E55.14046
G1 X218.657 Y135.251 E55.20316
G1 X218.53 Y135.626 E55.2216
G1 X217.796 Y137.705 E55.32426
G1 X217.022 Y140.116 E55.44217
G1 X216.319 Y142.535 E55.55947
G1 X215.671 Y145.028 E55.67941
G1 X215.097 Y147.516 E55.79831
G1 X214.606 Y149.973 E55.91498
G1 X214.177 Y152.48 E56.03341
G1 X213.822 Y154.978 E56.1509
G1 X213.535 Y157.501 E56.26914
G1 X213.318 Y160.059 E56.38868
G1 X213.187 Y162.385 E56.49715
G1 X213.158 Y162.782 E56.51569
G1 X213.048 Y163.678 E56.55772
G1 X212.86 Y164.562 E56.59981
G1 X212.594 Y165.425 E56.64186
G1 X212.252 Y166.261 E56.68392
G1 X211.838 Y167.063 E56.72594
G1 X211.355 Y167.826 E56.76799
G1 X210.806 Y168.543 E56.81004
G1 X210.196 Y169.209 E56.8521
G1 X209.529 Y169.818 E56.89415
G1 X208.811 Y170.366 E56.93621
G1 X208.048 Y170.848 E56.97824
G1 X207.244 Y171.261 E57.02032
G1 X206.408 Y171.601 E57.06235
G1 X205.544 Y171.866 E57.10443
G1 X204.661 Y172.053 E57.14646
G1 X203.764 Y172.161 E57.18853
G1 X203.277 Y172.187 E57.21124
G1 X202.958 Y172.196 E57.2261
G1 X202.67 Y172.2 E57.23951
G1 X57.575 Y172.199 E63.99574
G1 X56.877 Y172.19 E64.02824
G1 X55.976 Y172.139 E64.07026
G1 X55.082 Y172.007 E64.11234
G1 X54.204 Y171.798 E64.15437
G1 X53.347 Y171.511 E64.19645
G1 X52.52 Y171.15 E64.23847
G1 X51.727 Y170.717 E64.28054
G1 X50.976 Y170.216 E64.32258
G1 X50.272 Y169.65 E64.36464
G1 X49.621 Y169.024 E64.4067
G1 X49.028 Y168.343 E64.44874
G1 X48.498 Y167.612 E64.49079
G1 X48.034 Y166.837 E64.53285
G1 X47.64 Y166.024 E64.57492
G1 X47.32 Y165.18 E64.61695
G1 X47.076 Y164.31 E64.65902
G1 X46.91 Y163.422 E64.70108
G1 X46.826 Y162.58 E64.74049
G1 X46.75 Y161.27 E64.80159
G1 X46.561 Y158.639 E64.92441
G1 X46.309 Y156.131 E65.04179
G1 X45.978 Y153.573 E65.16189
G1 X45.585 Y151.087 E65.27909
G1 X45.118 Y148.596 E65.3971
G1 X44.588 Y146.147 E65.51377
G1 X43.975 Y143.654 E65.63332
G1 X43.293 Y141.191 E65.75232
G1 X42.552 Y138.782 E65.86968
G1 X41.717 Y136.311 E65.99113
G1 X41.388 Y135.378 E66.0372
G1 X41.126 Y134.514 E66.07924
G1 X40.942 Y133.629 E66.12133
G1 X40.836 Y132.733 E66.16334
G1 X40.813 Y132.277 E66.1846
G1 X40.804 Y131.957 E66.19951
G1 X40.8 Y131.67 E66.21287
G1 X40.801 Y126.548 E66.45137
G1 X40.812 Y125.841 E66.4843
G1 X40.866 Y124.94 E66.52633
G1 X41 Y124.047 E66.56838
G1 X41.212 Y123.169 E66.61043
G1 X41.43 Y122.503 E66.64307
G1 X42.329 Y119.959 E66.7687
G1 X43.098 Y117.566 E66.88574
G1 X43.811 Y115.117 E67.00451
G1 X44.449 Y112.661 E67.12267
G1 X45.027 Y110.152 E67.24256
G1 X45.528 Y107.668 E67.36056
G1 X45.948 Y105.209 E67.47671
G1 X46.309 Y102.671 E67.59608
G1 X46.596 Y100.14 E67.71469
G1 X46.82 Y97.507 E67.83774
G1 X46.837 Y97.273 E67.84866
G1 X46.942 Y96.376 E67.89072
G1 X47.126 Y95.492 E67.93276
G1 X47.387 Y94.627 E67.97483
G1 X47.724 Y93.789 E68.01689
G1 X48.133 Y92.984 E68.05894
G1 X48.613 Y92.219 E68.10099
G1 X49.158 Y91.499 E68.14304
G1 X49.764 Y90.83 E68.18507
G1 X50.428 Y90.217 E68.22715
G1 X51.143 Y89.665 E68.26921
G1 X51.424 Y89.486 E68.28472
G0 F1080 X51.904 Y89.179
G1 F3600 E58.28472
;MESH:tampa.stl
G0 F6000 X51.904 Y125.335
G0 X51.904 Y126.32
G0 X51.879 Y129
;TYPE:WALL-INNER
G1 F3600 E68.28472
G1 F1200 X51.996 Y129.44 E68.30592
G1 X52.163 Y130.061 E68.33587
G1 X52.939 Y130.837 E68.38697
G1 X53.56 Y131.004 E68.41691
G1 X54 Y131.121 E68.43811
G1 X54.44 Y131.004 E68.45931
G1 X55.061 Y130.837 E68.48926
G1 X55.837 Y130.061 E68.54036
G1 X56.121 Y129 E68.5915
G1 X55.837 Y127.939 E68.64265
G1 X55.061 Y127.163 E68.69375
G1 X54.44 Y126.996 E68.72369
G1 X54 Y126.879 E68.74489
G1 X53.56 Y126.996 E68.76609
G1 X52.939 Y127.163 E68.79603
G1 X52.163 Y127.939 E68.84714
G1 X52.025 Y128.449 E68.87174
G0 F1080 X51.996 Y128.56
G0 X51.879 Y129
G0 F6000 X52.293 Y129
;TYPE:WALL-OUTER
G1 F1200 X52.522 Y129.854 E68.91291
G1 X53.146 Y130.478 E68.954
G1 X54 Y130.707 E68.99517
G1 X54.854 Y130.478 E69.03634
G1 X55.478 Y129.854 E69.07743
G1 X55.707 Y129 E69.1186
G1 X55.478 Y128.146 E69.15977
G1 X54.854 Y127.522 E69.20086
G1 X54 Y127.293 E69.24204
G1 X53.146 Y127.522 E69.28321
G1 X52.522 Y128.146 E69.3243
G1 X52.44 Y128.45 E69.33896
G0 F1080 X52.293 Y129
G0 F6000 X51.853 Y129
G1 F3600 E59.33896
G0 F6000 X53.138 Y126.336
G0 X57.328 Y126.328
G0 X57.317 Y117.677
G0 X58.61 Y115
G0 X56.335 Y115
G0 X73.187 Y115
G0 X70.854 Y115
G0 X71.051 Y115
;TYPE:WALL-INNER
G1 F3600 E69.33896
G1 F1200 X71.445 Y116.475 E69.41005
G1 X72.525 Y117.555 E69.48117
G1 X74 Y117.949 E69.55226
G1 X75.475 Y117.555 E69.62335
